icons/website.svg

<svg width="24" height="24" viewBox="0 0 24 24" fill="none" xmlns="http://www.w3.org/2000/svg">
<g clip-path="url(#clip0_8065_10398)">
<path d="M12 24.0029C11.965 24.0029 11.93 23.9989 11.895 23.9909C8.73198 23.9619 5.76098 22.7149 3.52498 20.4789C3.35698 20.3109 3.18698 20.1279 2.99098 19.9049C2.92398 19.8569 2.87198 19.7959 2.83598 19.7259C1.01498 17.5709 0.0129778 14.8279 0.0139778 11.9979C0.0149778 9.18288 1.01598 6.44588 2.83398 4.28688C2.87198 4.20888 2.92898 4.14288 3.00098 4.09388C5.26698 1.51588 8.52298 0.0278828 11.941 0.00888281C11.96 0.00588281 11.98 0.00488281 12 0.00488281C12.019 0.00488281 12.038 0.00588281 12.057 0.00788281C15.523 0.0228828 18.81 1.53388 21.077 4.15788C21.651 4.82388 22.138 5.52588 22.539 6.26388C23.497 8.01888 24.002 10.0039 24 12.0039C23.999 14.8299 22.99 17.5759 21.159 19.7389C21.128 19.7959 21.084 19.8469 21.028 19.8899C18.768 22.4709 15.518 23.9649 12.103 23.9919C12.067 23.9989 12.033 24.0029 12 24.0029ZM8.88798 20.0029C9.73498 21.1679 10.807 22.1709 12.016 22.9279C13.314 22.2089 14.436 21.2049 15.288 20.0029H8.88798ZM4.46998 20.0029C6.05698 21.4979 8.05298 22.4849 10.19 22.8409C9.21098 22.0339 8.36798 21.0819 7.67598 20.0029H4.46998ZM16.486 20.0029C15.816 21.0909 14.977 22.0339 13.985 22.8159C16.077 22.4419 17.979 21.4819 19.544 20.0029H16.486ZM20.478 19.0029C22.104 17.0419 22.999 14.5609 22.999 12.0029C23.001 10.1699 22.538 8.35188 21.66 6.74288C21.325 6.12888 20.93 5.54388 20.484 5.00288H16.897C17.123 5.43988 17.319 5.88388 17.484 6.32888C17.53 6.45388 17.526 6.58988 17.47 6.71088C17.414 6.83188 17.314 6.92488 17.189 6.97088C17.133 6.99188 17.075 7.00188 17.015 7.00188C16.807 7.00188 16.619 6.87088 16.546 6.67588C16.334 6.10488 16.069 5.54188 15.758 5.00188H8.23898C7.92798 5.54388 7.66298 6.10688 7.45198 6.67688C7.37898 6.87188 7.19098 7.00288 6.98298 7.00288C6.92398 7.00288 6.86498 6.99288 6.80898 6.97188C6.54998 6.87588 6.41798 6.58688 6.51398 6.32888C6.67898 5.88388 6.87598 5.43888 7.10098 5.00288H3.53098C1.90798 6.96288 1.01498 9.44188 1.01398 11.9979C1.01298 14.5579 1.90798 17.0409 3.53498 19.0029H7.10098C6.87598 18.5659 6.67898 18.1219 6.51298 17.6769C6.41698 17.4179 6.54898 17.1299 6.80798 17.0339C6.86398 17.0129 6.92298 17.0029 6.98198 17.0029C7.18998 17.0029 7.37798 17.1339 7.45098 17.3289C7.66298 17.8999 7.92798 18.4629 8.23898 19.0039H15.912C16.199 18.4749 16.438 17.9189 16.625 17.3489C16.692 17.1429 16.883 17.0039 17.099 17.0039C17.152 17.0039 17.205 17.0129 17.256 17.0299C17.381 17.0709 17.485 17.1589 17.545 17.2789C17.606 17.3979 17.616 17.5339 17.574 17.6609C17.426 18.1139 17.244 18.5649 17.031 19.0049H20.478V19.0029ZM19.547 4.00288C17.955 2.50088 15.956 1.51288 13.8 1.15788C14.783 1.96688 15.629 2.91988 16.322 4.00288H19.547ZM15.112 4.00288C14.269 2.84288 13.203 1.84388 12 1.08788C10.797 1.84388 9.72998 2.84288 8.88798 4.00288H15.112ZM7.67698 4.00288C8.36998 2.91988 9.21598 1.96688 10.199 1.15788C8.05598 1.51288 6.05498 2.50288 4.46398 4.00288H7.67698Z" fill="#009ACE"/>
<path d="M10.496 15.5029C10.296 15.5029 10.111 15.3769 10.036 15.1889L9.465 13.7619C9.157 12.9899 9 12.1779 9 11.3479V10.0029C9 9.72693 9.224 9.50293 9.5 9.50293C9.776 9.50293 10 9.72693 10 10.0029V11.3479C10 12.0509 10.133 12.7379 10.393 13.3899L10.421 13.4589L11.019 11.3649C11.08 11.1519 11.278 11.0019 11.5 11.0019C11.722 11.0019 11.92 11.1509 11.981 11.3649L12.579 13.4589L12.607 13.3899C12.867 12.7379 13 12.0509 13 11.3479V10.0029C13 9.72693 13.224 9.50293 13.5 9.50293C13.776 9.50293 14 9.72693 14 10.0029V11.3479C14 12.1789 13.844 12.9909 13.535 13.7619L12.964 15.1889C12.888 15.3799 12.705 15.5029 12.5 15.5029C12.495 15.5029 12.478 15.5029 12.473 15.5019C12.261 15.4909 12.079 15.3459 12.02 15.1399L11.5 13.3229L10.981 15.1399C10.923 15.3449 10.74 15.4909 10.526 15.5019C10.521 15.5029 10.5 15.5029 10.496 15.5029Z" fill="#009ACE"/>
<path d="M16.496 15.5029C16.295 15.5029 16.11 15.3769 16.035 15.1879L15.464 13.7609C15.157 12.9899 15 12.1779 15 11.3479V10.0029C15 9.72693 15.224 9.50293 15.5 9.50293C15.776 9.50293 16 9.72693 16 10.0029V11.3479C16 12.0499 16.133 12.7379 16.394 13.3899L16.421 13.4589L17.019 11.3649C17.08 11.1509 17.278 11.0019 17.5 11.0019C17.722 11.0019 17.92 11.1509 17.981 11.3639L18.579 13.4579L18.607 13.3889C18.867 12.7379 19 12.0509 19 11.3479V10.0029C19 9.72693 19.224 9.50293 19.5 9.50293C19.776 9.50293 20 9.72693 20 10.0029V11.3479C20 12.1789 19.844 12.9909 19.535 13.7619L18.964 15.1889C18.888 15.3799 18.705 15.5029 18.5 15.5029C18.495 15.5029 18.478 15.5029 18.473 15.5019C18.261 15.4909 18.078 15.3459 18.02 15.1399L17.5 13.3229L16.981 15.1399C16.922 15.3459 16.739 15.4909 16.526 15.5019C16.521 15.5029 16.5 15.5029 16.496 15.5029Z" fill="#009ACE"/>
<path d="M4.496 15.5029C4.296 15.5029 4.111 15.3769 4.036 15.1889L3.465 13.7619C3.157 12.9899 3 12.1779 3 11.3479V10.0029C3 9.72693 3.224 9.50293 3.5 9.50293C3.776 9.50293 4 9.72693 4 10.0029V11.3479C4 12.0509 4.133 12.7379 4.393 13.3899L4.421 13.4589L5.019 11.3649C5.08 11.1519 5.278 11.0019 5.5 11.0019C5.722 11.0019 5.92 11.1509 5.981 11.3649L6.579 13.4589L6.607 13.3889C6.867 12.7379 7 12.0499 7 11.3479V10.0029C7 9.72693 7.224 9.50293 7.5 9.50293C7.776 9.50293 8 9.72693 8 10.0029V11.3479C8 12.1779 7.843 12.9899 7.535 13.7619L6.964 15.1889C6.888 15.3799 6.706 15.5029 6.5 15.5029C6.495 15.5029 6.478 15.5029 6.473 15.5019C6.26 15.4909 6.077 15.3449 6.019 15.1399L5.5 13.3229L4.981 15.1399C4.923 15.3449 4.74 15.4909 4.526 15.5019C4.521 15.5029 4.5 15.5029 4.496 15.5029Z" fill="#009ACE"/>
</g>
<defs>
<clipPath id="clip0_8065_10398">
<rect width="24" height="24" fill="white"/>
</clipPath>
</defs>
</svg>

<?xml version="1.0" encoding="utf-8"?>
<!-- Generator: Adobe Illustrator 22.1.0, SVG Export Plug-In . SVG Version: 6.00 Build 0)  -->
<svg version="1.1" id="Layer_1" xmlns="http://www.w3.org/2000/svg" xmlns:xlink="http://www.w3.org/1999/xlink" x="0px" y="0px"
	 viewBox="0 0 24 24" style="enable-background:new 0 0 24 24;" xml:space="preserve">
<g>
	<title>network-www</title>
	<path d="M12,24.003c-0.035,0-0.07-0.004-0.105-0.012c-3.163-0.029-6.134-1.276-8.37-3.512c-0.168-0.168-0.338-0.351-0.534-0.574
		c-0.067-0.048-0.119-0.109-0.155-0.179c-1.821-2.155-2.823-4.898-2.822-7.728c0.001-2.815,1.002-5.552,2.82-7.711
		c0.038-0.078,0.095-0.144,0.167-0.193c2.266-2.578,5.522-4.066,8.94-4.085C11.96,0.006,11.98,0.005,12,0.005
		c0.019,0,0.038,0.001,0.057,0.003c3.466,0.015,6.753,1.526,9.02,4.15c0.574,0.666,1.061,1.368,1.462,2.106
		c0.958,1.755,1.463,3.74,1.461,5.74c-0.001,2.826-1.01,5.572-2.841,7.735c-0.031,0.057-0.075,0.108-0.131,0.151
		c-2.26,2.581-5.51,4.075-8.925,4.102C12.067,23.999,12.033,24.003,12,24.003z M8.888,20.003c0.847,1.165,1.919,2.168,3.128,2.925
		c1.298-0.719,2.42-1.723,3.272-2.925H8.888z M4.47,20.003c1.587,1.495,3.583,2.482,5.72,2.838
		c-0.979-0.807-1.822-1.759-2.514-2.838H4.47z M16.486,20.003c-0.67,1.088-1.509,2.031-2.501,2.813
		c2.092-0.374,3.994-1.334,5.559-2.813H16.486z M20.478,19.003c1.626-1.961,2.521-4.442,2.521-7c0.002-1.833-0.461-3.651-1.339-5.26
		c-0.335-0.614-0.73-1.199-1.176-1.74h-3.587c0.226,0.437,0.422,0.881,0.587,1.326c0.046,0.125,0.042,0.261-0.014,0.382
		c-0.056,0.121-0.156,0.214-0.281,0.26c-0.056,0.021-0.114,0.031-0.174,0.031c-0.208,0-0.396-0.131-0.469-0.326
		c-0.212-0.571-0.477-1.134-0.788-1.674H8.239C7.928,5.544,7.663,6.107,7.452,6.677C7.379,6.872,7.191,7.003,6.983,7.003
		c-0.059,0-0.118-0.01-0.174-0.031C6.55,6.876,6.418,6.587,6.514,6.329c0.165-0.445,0.362-0.89,0.587-1.326H3.531
		c-1.623,1.96-2.516,4.439-2.517,6.995c-0.001,2.56,0.894,5.043,2.521,7.005h3.566c-0.225-0.437-0.422-0.881-0.588-1.326
		c-0.096-0.259,0.036-0.547,0.295-0.643c0.056-0.021,0.115-0.031,0.174-0.031c0.208,0,0.396,0.131,0.469,0.326
		c0.212,0.571,0.477,1.134,0.788,1.675h7.673c0.287-0.529,0.526-1.085,0.713-1.655c0.067-0.206,0.258-0.345,0.474-0.345
		c0.053,0,0.106,0.009,0.157,0.026c0.125,0.041,0.229,0.129,0.289,0.249c0.061,0.119,0.071,0.255,0.029,0.382
		c-0.148,0.453-0.33,0.904-0.543,1.344H20.478z M19.547,4.003c-1.592-1.502-3.591-2.49-5.747-2.845
		c0.983,0.809,1.829,1.762,2.522,2.845H19.547z M15.112,4.003C14.269,2.843,13.203,1.844,12,1.088
		C10.797,1.844,9.73,2.843,8.888,4.003H15.112z M7.677,4.003c0.693-1.083,1.539-2.036,2.522-2.845
		C8.056,1.513,6.055,2.503,4.464,4.003H7.677z"/>
	<path d="M10.496,15.503c-0.2,0-0.385-0.126-0.46-0.314l-0.571-1.427C9.157,12.99,9,12.178,9,11.348v-1.345
		c0-0.276,0.224-0.5,0.5-0.5s0.5,0.224,0.5,0.5v1.345c0,0.703,0.133,1.39,0.393,2.042l0.028,0.069l0.598-2.094
		c0.061-0.213,0.259-0.363,0.481-0.363s0.42,0.149,0.481,0.363l0.598,2.094l0.028-0.069C12.867,12.738,13,12.051,13,11.348v-1.345
		c0-0.276,0.224-0.5,0.5-0.5s0.5,0.224,0.5,0.5v1.345c0,0.831-0.156,1.643-0.465,2.414l-0.571,1.427
		c-0.076,0.191-0.259,0.314-0.464,0.314c-0.005,0-0.022,0-0.027-0.001c-0.212-0.011-0.394-0.156-0.453-0.362L11.5,13.323
		l-0.519,1.817c-0.058,0.205-0.241,0.351-0.455,0.362C10.521,15.503,10.5,15.503,10.496,15.503z"/>
	<path d="M16.496,15.503c-0.201,0-0.386-0.126-0.461-0.315l-0.571-1.427C15.157,12.99,15,12.178,15,11.348v-1.345
		c0-0.276,0.224-0.5,0.5-0.5s0.5,0.224,0.5,0.5v1.345c0,0.702,0.133,1.39,0.394,2.042l0.027,0.069l0.598-2.094
		c0.061-0.214,0.259-0.363,0.481-0.363s0.42,0.149,0.481,0.362l0.598,2.094l0.028-0.069C18.867,12.738,19,12.051,19,11.348v-1.345
		c0-0.276,0.224-0.5,0.5-0.5s0.5,0.224,0.5,0.5v1.345c0,0.831-0.156,1.643-0.465,2.414l-0.571,1.427
		c-0.076,0.191-0.259,0.314-0.464,0.314c-0.005,0-0.022,0-0.027-0.001c-0.212-0.011-0.395-0.156-0.453-0.362L17.5,13.323
		l-0.519,1.817c-0.059,0.206-0.242,0.351-0.455,0.362C16.521,15.503,16.5,15.503,16.496,15.503z"/>
	<path d="M4.496,15.503c-0.2,0-0.385-0.126-0.46-0.314l-0.571-1.427C3.157,12.99,3,12.178,3,11.348v-1.345
		c0-0.276,0.224-0.5,0.5-0.5S4,9.727,4,10.003v1.345c0,0.703,0.133,1.39,0.393,2.042l0.028,0.069l0.598-2.094
		c0.061-0.213,0.259-0.363,0.481-0.363s0.42,0.149,0.481,0.363l0.598,2.094l0.028-0.07C6.867,12.738,7,12.05,7,11.348v-1.345
		c0-0.276,0.224-0.5,0.5-0.5S8,9.727,8,10.003v1.345c0,0.83-0.157,1.642-0.465,2.414l-0.571,1.427
		C6.888,15.38,6.706,15.503,6.5,15.503c-0.005,0-0.022,0-0.027-0.001c-0.213-0.011-0.396-0.157-0.454-0.362L5.5,13.323L4.981,15.14
		c-0.058,0.205-0.241,0.351-0.455,0.362C4.521,15.503,4.5,15.503,4.496,15.503z"/>
</g>
</svg>
